X: 176
T:Triumph
M:4/4
L:1/8
Q:160
A:England
K:G
d2 (3BGB c2 A>F|G2 g>f e>fg>e|d2 (3BGB c2 A>F| G>BA>F G2 g2| d2 (3BGB c2 A>F| G2 g>f e>fg>e| d2 (3BGB c2 A>F|G>BA>F G4:|

